packages/foundations/assets/icons/functional/images/transportation/train_and_car.svg

<svg xmlns="http://www.w3.org/2000/svg" width="32" height="32" fill="none"><path fill="#1A1C1F" fill-rule="evenodd" d="M9.227 2.083c-2.382.32-3.988 1.334-5.358 3.382-.954 1.427-1.581 3.231-1.733 4.988-.088 1.004-.154 4.748-.105 5.853.098 2.184.357 3.753 1.096 6.627.557 2.165.774 2.736 1.385 3.636.709 1.047 1.274 1.584 2.071 1.971l.423.206.004.254a.97.97 0 0 0 .484.84l.257.16h1.071c.589 0 1.137-.018 1.217-.041.186-.052.5-.327.617-.54.073-.134.091-.31.091-.912 0-.869-.065-1.062-.45-1.334l-.226-.16-1.076-.029c-1.066-.028-1.078-.03-1.434-.196a3 3 0 0 1-.662-.451c-.334-.313-.827-1.026-1.14-1.647-.204-.404-.396-.967-.363-1.064.009-.028.497.249 1.084.615 1.266.791 1.441.879 2.118 1.063.443.12.55.133.734.083.435-.117.748-.529.748-.983 0-.554-.272-.841-1.036-1.096a5.6 5.6 0 0 1-1.085-.521 85 85 0 0 0-2.777-1.64c-.56-.305-.514-.221-.732-1.334-.389-1.989-.483-3.549-.402-6.64.034-1.276.075-2.452.091-2.613a8.85 8.85 0 0 1 1.394-3.973C6.581 4.98 7.755 4.249 9.602 4.055c.67-.071 4.16-.07 4.859.001 1.688.171 2.728.765 3.734 2.131.897 1.218 1.487 2.712 1.643 4.16.12 1.117.22 1.35.666 1.553a.994.994 0 0 0 1.366-.659c.072-.267-.005-1.18-.168-1.988-.25-1.241-.878-2.756-1.569-3.786-1.269-1.893-2.592-2.829-4.64-3.285-.507-.113-.663-.12-3.226-.132-1.482-.008-2.85.007-3.04.033m1.112 4.025c-2.247.306-3.791 1.356-4.175 2.837-.153.588-.089 1.398.235 2.975.156.758.245.997.535 1.431.436.651 1.109 1.094 1.946 1.28.546.121 2.268.356 2.613.356.379 0 .675-.147.86-.427.242-.365.225-.86-.041-1.198-.204-.259-.452-.335-1.57-.48-1.69-.218-1.767-.238-2.035-.512-.202-.206-.241-.316-.383-1.09-.325-1.767-.322-1.885.062-2.301.61-.661 2.21-1.042 4.041-.96 1.487.066 2.531.36 3.098.872.399.361.436.569.283 1.601-.047.316-.074.677-.06.802a.98.98 0 0 0 1.054.854c.332-.032.655-.241.795-.515.127-.249.322-1.514.323-2.09 0-.775-.28-1.391-.906-1.989-.835-.798-1.893-1.248-3.403-1.448-.744-.098-2.547-.097-3.272.002m4.843 8.049q-.92.38-1.324 1.234c-.102.216-.32 1.037-.651 2.454l-.497 2.128-.635.027c-.695.029-.824.073-.984.337-.081.132-.104.268-.104.611 0 .704.189.99.699 1.058l.261.034v.395c0 .421.272 2.947.396 3.686.041.243.149.6.239.793l.165.351.001.968c.001.829.015.998.101 1.187.196.433.583.603 1.375.605.603.002.944-.08 1.175-.283a.92.92 0 0 0 .334-.754v-.241h9.48l.037.279q.071.547.467.802c.261.169.627.222 1.298.187.603-.032.886-.169 1.092-.53.127-.221.134-.279.15-1.245.015-.943.026-1.032.146-1.29.072-.152.165-.428.208-.613.114-.501.468-3.708.443-4.024l-.022-.274.264-.031c.3-.036.474-.132.61-.34.117-.179.134-1.14.023-1.338-.147-.262-.358-.33-1.023-.33h-.614l-.499-2.147c-.348-1.499-.548-2.251-.662-2.493-.214-.457-.646-.886-1.13-1.124l-.372-.183-5.068-.012-5.068-.013zm10.046 1.94c.1.081.187.385.53 1.853.226.966.427 1.823.447 1.903l.037.147h-5.734c-3.154 0-5.735-.015-5.735-.034 0-.069.753-3.273.83-3.533.139-.469-.272-.433 4.91-.433 4.361 0 4.601.005 4.715.097m-17.95.96c-.344.162-.61.56-.611.917 0 .094.987 3.157 1.064 3.302.093.173.355.358.609.429.53.148 1.083-.197 1.207-.753.063-.285.062-.288-.444-1.847-.279-.859-.544-1.62-.59-1.69-.259-.395-.814-.556-1.235-.358m19.633 5.103c.122.121.132.168.118.519l-.016.387-.693.122c-.811.144-1.02.253-1.2.625a.986.986 0 0 0 .433 1.32c.22.109.437.126.885.069l.331-.042-.028.207c-.104.755-.247 1.028-.629 1.195-.222.097-1.653.251-3.436.37-1.031.069-3.203.069-4.249.001-1.638-.108-3.259-.271-3.478-.351-.416-.153-.602-.466-.68-1.148l-.035-.299.382.066c.257.044.454.049.602.016.846-.19 1.053-1.301.333-1.793-.108-.074-.399-.154-.856-.235l-.692-.123-.043-.24q-.088-.498.156-.69c.138-.109.175-.109 6.4-.109h6.262zm-8.889 1.376c-.199.104-.293.218-.608.734-.369.603-.373.614-.374.987 0 .332.018.402.15.574.455.597 1.262.532 1.707-.138l.204-.306h2.81l.16.261c.231.375.486.552.836.581a.98.98 0 0 0 .914-.426c.127-.184.152-.275.152-.546 0-.303-.022-.363-.333-.887-.354-.599-.535-.809-.777-.9-.097-.037-.933-.057-2.378-.057-2.223 0-2.229.001-2.463.123"/></svg>

<svg width="32" height="32" viewBox="0 0 32 32" fill="none" xmlns="http://www.w3.org/2000/svg"><path d="M9.227 2.083 C 6.845 2.403,5.239 3.417,3.869 5.465 C 2.915 6.892,2.288 8.696,2.136 10.453 C 2.048 11.457,1.982 15.201,2.031 16.306 C 2.129 18.490,2.388 20.059,3.127 22.933 C 3.684 25.098,3.901 25.669,4.512 26.569 C 5.221 27.616,5.786 28.153,6.583 28.540 L 7.006 28.746 7.010 29.000 C 7.016 29.358,7.182 29.646,7.494 29.840 L 7.751 30.000 8.822 30.000 C 9.411 30.000,9.959 29.982,10.039 29.959 C 10.225 29.907,10.539 29.632,10.656 29.419 C 10.729 29.285,10.747 29.109,10.747 28.507 C 10.747 27.638,10.682 27.445,10.297 27.173 L 10.071 27.013 8.995 26.984 C 7.929 26.956,7.917 26.954,7.561 26.788 C 7.358 26.694,7.069 26.497,6.899 26.337 C 6.565 26.024,6.072 25.311,5.759 24.690 C 5.555 24.286,5.363 23.723,5.396 23.626 C 5.405 23.598,5.893 23.875,6.480 24.241 C 7.746 25.032,7.921 25.120,8.598 25.304 C 9.041 25.424,9.148 25.437,9.332 25.387 C 9.767 25.270,10.080 24.858,10.080 24.404 C 10.080 23.850,9.808 23.563,9.044 23.308 C 8.718 23.199,8.323 23.010,7.959 22.787 C 6.900 22.139,5.676 21.415,5.182 21.147 C 4.622 20.842,4.668 20.926,4.450 19.813 C 4.061 17.824,3.967 16.264,4.048 13.173 C 4.082 11.897,4.123 10.721,4.139 10.560 C 4.283 9.125,4.757 7.776,5.533 6.587 C 6.581 4.980,7.755 4.249,9.602 4.055 C 10.272 3.984,13.762 3.985,14.461 4.056 C 16.149 4.227,17.189 4.821,18.195 6.187 C 19.092 7.405,19.682 8.899,19.838 10.347 C 19.958 11.464,20.058 11.697,20.504 11.900 C 21.060 12.152,21.709 11.839,21.870 11.241 C 21.942 10.974,21.865 10.061,21.702 9.253 C 21.452 8.012,20.824 6.497,20.133 5.467 C 18.864 3.574,17.541 2.638,15.493 2.182 C 14.986 2.069,14.830 2.062,12.267 2.050 C 10.785 2.042,9.417 2.057,9.227 2.083 M10.339 6.108 C 8.092 6.414,6.548 7.464,6.164 8.945 C 6.011 9.533,6.075 10.343,6.399 11.920 C 6.555 12.678,6.644 12.917,6.934 13.351 C 7.370 14.002,8.043 14.445,8.880 14.631 C 9.426 14.752,11.148 14.987,11.493 14.987 C 11.872 14.987,12.168 14.840,12.353 14.560 C 12.595 14.195,12.578 13.700,12.312 13.362 C 12.108 13.103,11.860 13.027,10.742 12.882 C 9.052 12.664,8.975 12.644,8.707 12.370 C 8.505 12.164,8.466 12.054,8.324 11.280 C 7.999 9.513,8.002 9.395,8.386 8.979 C 8.996 8.318,10.596 7.937,12.427 8.019 C 13.914 8.085,14.958 8.379,15.525 8.891 C 15.924 9.252,15.961 9.460,15.808 10.492 C 15.761 10.808,15.734 11.169,15.748 11.294 C 15.806 11.810,16.285 12.197,16.802 12.148 C 17.134 12.116,17.457 11.907,17.597 11.633 C 17.724 11.384,17.919 10.119,17.920 9.543 C 17.920 8.768,17.640 8.152,17.014 7.554 C 16.179 6.756,15.121 6.306,13.611 6.106 C 12.867 6.008,11.064 6.009,10.339 6.108 M15.182 14.157 C 14.569 14.410,14.128 14.821,13.858 15.391 C 13.756 15.607,13.538 16.428,13.207 17.845 L 12.710 19.973 12.075 20.000 C 11.380 20.029,11.251 20.073,11.091 20.337 C 11.010 20.469,10.987 20.605,10.987 20.948 C 10.987 21.652,11.176 21.938,11.686 22.006 L 11.947 22.040 11.947 22.435 C 11.947 22.856,12.219 25.382,12.343 26.121 C 12.384 26.364,12.492 26.721,12.582 26.914 L 12.747 27.265 12.748 28.233 C 12.749 29.062,12.763 29.231,12.849 29.420 C 13.045 29.853,13.432 30.023,14.224 30.025 C 14.827 30.027,15.168 29.945,15.399 29.742 C 15.631 29.538,15.733 29.308,15.733 28.988 L 15.733 28.747 20.473 28.747 L 25.213 28.747 25.250 29.026 C 25.298 29.391,25.453 29.657,25.717 29.828 C 25.978 29.997,26.344 30.050,27.015 30.015 C 27.618 29.983,27.901 29.846,28.107 29.485 C 28.234 29.264,28.241 29.206,28.257 28.240 C 28.272 27.297,28.283 27.208,28.403 26.950 C 28.475 26.798,28.568 26.522,28.611 26.337 C 28.725 25.836,29.079 22.629,29.054 22.313 L 29.032 22.039 29.296 22.008 C 29.596 21.972,29.770 21.876,29.906 21.668 C 30.023 21.489,30.040 20.528,29.929 20.330 C 29.782 20.068,29.571 20.000,28.906 20.000 L 28.292 20.000 27.793 17.853 C 27.445 16.354,27.245 15.602,27.131 15.360 C 26.917 14.903,26.485 14.474,26.001 14.236 L 25.629 14.053 20.561 14.041 L 15.493 14.028 15.182 14.157 M25.228 16.097 C 25.328 16.178,25.415 16.482,25.758 17.950 C 25.984 18.916,26.185 19.773,26.205 19.853 L 26.242 20.000 20.508 20.000 C 17.354 20.000,14.773 19.985,14.773 19.966 C 14.773 19.897,15.526 16.693,15.603 16.433 C 15.742 15.964,15.331 16.000,20.513 16.000 C 24.874 16.000,25.114 16.005,25.228 16.097 M7.278 17.057 C 6.934 17.219,6.668 17.617,6.667 17.974 C 6.667 18.068,7.654 21.131,7.731 21.276 C 7.824 21.449,8.086 21.634,8.340 21.705 C 8.870 21.853,9.423 21.508,9.547 20.952 C 9.610 20.667,9.609 20.664,9.103 19.105 C 8.824 18.246,8.559 17.485,8.513 17.415 C 8.254 17.020,7.699 16.859,7.278 17.057 M26.911 22.160 C 27.033 22.281,27.043 22.328,27.029 22.679 L 27.013 23.066 26.320 23.188 C 25.509 23.332,25.300 23.441,25.120 23.813 C 24.881 24.308,25.073 24.893,25.553 25.133 C 25.773 25.242,25.990 25.259,26.438 25.202 L 26.769 25.160 26.741 25.367 C 26.637 26.122,26.494 26.395,26.112 26.562 C 25.890 26.659,24.459 26.813,22.676 26.932 C 21.645 27.001,19.473 27.001,18.427 26.933 C 16.789 26.825,15.168 26.662,14.949 26.582 C 14.533 26.429,14.347 26.116,14.269 25.434 L 14.234 25.135 14.616 25.201 C 14.873 25.245,15.070 25.250,15.218 25.217 C 16.064 25.027,16.271 23.916,15.551 23.424 C 15.443 23.350,15.152 23.270,14.695 23.189 L 14.003 23.066 13.960 22.826 C 13.901 22.494,13.953 22.264,14.116 22.136 C 14.254 22.027,14.291 22.027,20.516 22.027 L 26.778 22.027 26.911 22.160 M18.022 23.536 C 17.823 23.640,17.729 23.754,17.414 24.270 C 17.045 24.873,17.041 24.884,17.040 25.257 C 17.040 25.589,17.058 25.659,17.190 25.831 C 17.645 26.428,18.452 26.363,18.897 25.693 L 19.101 25.387 20.506 25.387 L 21.911 25.387 22.071 25.648 C 22.302 26.023,22.557 26.200,22.907 26.229 C 23.282 26.260,23.610 26.107,23.821 25.803 C 23.948 25.619,23.973 25.528,23.973 25.257 C 23.973 24.954,23.951 24.894,23.640 24.370 C 23.286 23.771,23.105 23.561,22.863 23.470 C 22.766 23.433,21.930 23.413,20.485 23.413 C 18.262 23.413,18.256 23.414,18.022 23.536 " fill="#1A1C1F" stroke="none" fill-rule="evenodd"></path></svg>
